X:1
T:Onochio Oh (Irish Air from D. Corri)
M:3/4
L:1/4
K:G
 E3/4- F/4| G2 G| B2 A| B- E G3/4- ^D/4| E2 z| G3| A3/2- G/2- A| A/2 B3/2 d|\
 e2 E3/4- F/4| G2 E3/4- A/4| G g2| d/2- B3/2 d| e2 e| d/2 B3/2 G| B3/2 A/2 B|\
 G/2 E3/2 G3/4- ^D/4| E2||
